!!!COM:	Bach, Johann Sebastian
!!!CDT:	1685/02/21/-1750/07/28/
!!!OTL@@DE:	Was mein Gott will, das g'schen allzeit
!!!SCT:	BWV 144/6
!!!PC#:	265
!!!AGN:	chorale
**kern	**kern	**kern	**kern
*ICvox	*ICvox	*ICvox	*ICvox
*Ibass	*Itenor	*Ialto	*Isoprn
*I"Bass	*I"Tenor	*I"Alto	*I"Soprano
*>[A,A,B]	*>[A,A,B]	*>[A,A,B]	*>[A,A,B]
*>norep[A,B]	*>norep[A,B]	*>norep[A,B]	*>norep[A,B]
*>A	*>A	*>A	*>A
*clefF4	*clefGv2	*clefG2	*clefG2
*k[f#c#]	*k[f#c#]	*k[f#c#]	*k[f#c#]
*b:	*b:	*b:	*b:
*M4/4	*M4/4	*M4/4	*M4/4
*met(c)	*met(c)	*met(c)	*met(c)
*MM100	*MM100	*MM100	*MM100
4BB	4B	4d	4f#
=1	=1	=1	=1
4F#	4A	4d	4a
4G	4G	4d	4b
8DL	8F#L	4d	4a
8EJ	8GJ	.	.
8F#L	8AL	8dL	4dd
8GJ	8BJ	8eJ	.
=2	=2	=2	=2
4A	4A	8f#L	4dd
.	.	8gJ	.
4AA	4e	4a	4cc#
4D;	4f#;	4a;	4dd;
4D	4f#	4a	4dd
=3	=3	=3	=3
4A	4e	4a	4cc#
8EL	4e	4g	4b
8F#J	.	.	.
8GL	4B	4g	4.ee
8AJ	.	.	.
4B	4B	4f#	.
.	.	.	8dd
=4	=4	=4	=4
8F#L	4A#	[2f#	4cc#
8E	.	.	.
8D	2B	.	4dd
8EJ	.	.	.
2F#	.	8f#L]	2cc#
.	.	8g	.
.	4A#	8f#	.
.	.	8eJ	.
=5	=5	=5	=5
2.BB;	2.F#;	2.d;	2.b;
=:|!	=:|!	=:|!	=:|!
*>B	*>B	*>B	*>B
8BL	8dL	4f#	4b
8AnXJ	8c#J	.	.
=6	=6	=6	=6
8G#L	8BL	4e	4b
8AJ	8c#J	.	.
8G#L	8BL	4d	4b
8F#J	8AJ	.	.
8E#L	4G#	4c#	4.cc#
8C#J	.	.	.
8F#L	8AL	8d#L	.
8G#J	8BJ	8e#J	8b
=7	=7	=7	=7
8AL	8AL	4f#	4cc#
8G#J	8BJ	.	.
8F#L	4c#	4f#	4a
8EJ	.	.	.
8DL	4B	4f#	4a
8BBJ	.	.	.
4E	4B	4e	4g#
=8	=8	=8	=8
4AA;	4c#;	4e;	4a;
4A	4c#	4e	4a
4G#	4B	4e	4b
4G	4A#	4e	4cc#
=9	=9	=9	=9
4F#	4B	4f#	4dd
4E	4g	4a#	4cc#
8DL	4f#	4b	2b
8C#	.	.	.
8D	4e#	4g#	.
8BBJ	.	.	.
=10	=10	=10	=10
2.F#;	2.f#;	2.a#;	2.cc#;
4FF#	8AnXL	4c#	8f#L
.	8BJ	.	8g#J
=11	=11	=11	=11
4F#	4c#	4f#	4anX
4E#	8dL	4g#	4b
.	8c#J	.	.
4F#	4c#	4f#	4a
8BL	4d	4f#	4dd
8AJ	.	.	.
=12	=12	=12	=12
4G#	4e	4b	4dd
4A	4e	4a	4cc#
4D;	4f#;	4a;	4dd;
4BB	8eL	4g#	4dd
.	8dJ	.	.
=13	=13	=13	=13
4AA	4e	4a	4cc#
8EL	4e	4g#	4b
8DJ	.	.	.
8C#L	8eL	4.a#	4.ee
8DJ	8f#J	.	.
8C#L	[4gnX	.	.
8BBJ	.	8b	8dd
=14	=14	=14	=14
8AA#L	8gL]	4cc#	4cc#
8GnX	16f#L	.	.
.	16eJJ	.	.
8F#	8dL	2b	4dd
8E#J	16c#L	.	.
.	16BJJ	.	.
2F#	8f#L	.	2cc#
.	8c#J	.	.
.	8f#L	4a#	.
.	8eJ	.	.
=15	=15	=15	=15
2.BB;	4d#	4anX	2.b;
.	4enX	4g	.
.	4d#;	4f#;	.
==	==	==	==
*-	*-	*-	*-
!!!hum2abc: -Q ''
!!!title: @{PC#}. @{OTL@@DE}
!!!YOR1: 371 vierstimmige Choralges&auml;nge von Johann Sebastian Bach, 
!!!YOR2: 4th ed. by Alfred D&ouml;rffel (Leipzig: Breitkopf und H&auml;rtel, 
!!!YOR2: c.1875). 178 pp. Plate "V.A.10".  reprint: J.S. Bach, 371 Four-Part 
!!!YOR4: Chorales (New York: Associated Music Publishers, Inc., c.1940).
!!!SMS: B&H, 4th ed, Alfred D&ouml;rffel, c.1875, plate V.A.10
!!!EED:  Craig Stuart Sapp
!!!EEV:  2009/05/22
